packages/calcite-ui-icons/icons/bezier-curve-16.svg

<?xml version="1.0" encoding="UTF-8"?><svg id="icons" xmlns="http://www.w3.org/2000/svg" viewBox="0 0 16 16"><defs><style>.cls-1{fill:none;}</style></defs><path d="M11,0v3h1v1.5c0,1.37842-1.12109,2.5-2.5,2.5h-3c-1.92969,0-3.5,1.57031-3.5,3.5v2.5h-1v3h3v-3h-1v-2.5c0-1.37842,1.12109-2.5,2.5-2.5h3c1.92969,0,3.491-1.57031,3.491-3.5l.009-1.5h1V0h-3ZM4,15h-1v-1h1v1ZM13,2h-1v-1h1v1Z"/><rect class="cls-1" y="0" width="16" height="16"/></svg>

<svg xmlns="http://www.w3.org/2000/svg" viewBox="0 0 16 16"><path d="M11 0v3h1v1.5C12 5.878 10.879 7 9.5 7h-3C4.57 7 3 8.57 3 10.5V13H2v3h3v-3H4v-2.5C4 9.122 5.121 8 6.5 8h3c1.93 0 3.491-1.57 3.491-3.5L13 3h1V0h-3zM4 15H3v-1h1v1zm9-13h-1V1h1v1z"/><path fill="none" d="M0 0h16v16H0z"/></svg>
